pix_core/e/styleprops.svg

<!DOCTYPE svg PUBLIC "-//W3C//DTD SVG 1.1//EN" "http://www.w3.org/Graphics/SVG/1.1/DTD/svg11.dtd" [
	<!ENTITY ns_flows "http://ns.adobe.com/Flows/1.0/">
]><svg xmlns="http://www.w3.org/2000/svg" width="16" height="16" viewBox="0 0 16 16" preserveAspectRatio="xMinYMid meet" overflow="visible"><path d="M5 9.2v.3h3.7l.3-.3c-.3-.1-.5-.1-.6-.2-.1-.1-.2-.5-.3-1l-1.4-8h-.3l-5.2 8.2c-.2.4-.4.6-.6.8-.1.1-.3.1-.6.2v.3h2.7v-.3c-.3 0-.6-.1-.7-.1s-.2-.2-.2-.4c0-.1 0-.2.1-.3s.1-.2.2-.3l.8-1.4h3c.1.5.1.9.1 1 .1.4.1.6.1.8 0 .2-.1.4-.2.5s-.5.2-.9.2zm-1.8-3.1l2.1-3.4.5 3.4h-2.6zm3.6 7.6c.3-.1.5-.2.6-.3.2-.1.4-.4.6-.7l5.2-8.2h.4l1.3 8c.1.5.2.9.3 1s.4.2.8.2v.3h-4.2v-.3c.4 0 .7-.1.9-.2s.2-.3.2-.6c0-.1 0-.4-.1-.8 0-.1-.1-.4-.1-1h-3l-.8 1.4c-.1.1-.1.2-.1.3s-.2.2-.2.4.1.3.2.4.4.1.7.1v.3h-2.7v-.3zm5.7-3.2l-.5-3.4-2 3.4h2.5zm3.5 5.5h-11v-1h11v1z" fill="#1F4D87"/></svg>

<?xml version="1.0" encoding="utf-8"?>
<!-- Generator: Adobe Illustrator 15.1.0, SVG Export Plug-In  -->
<!DOCTYPE svg PUBLIC "-//W3C//DTD SVG 1.1//EN" "http://www.w3.org/Graphics/SVG/1.1/DTD/svg11.dtd" [
	<!ENTITY ns_flows "http://ns.adobe.com/Flows/1.0/">
]>
<svg version="1.1"
	 xmlns="http://www.w3.org/2000/svg" xmlns:xlink="http://www.w3.org/1999/xlink" xmlns:a="http://ns.adobe.com/AdobeSVGViewerExtensions/3.0/"
	 x="0px" y="0px" width="16px" height="16px" viewBox="0 0 16 16" style="overflow:visible;enable-background:new 0 0 16 16;"
	 xml:space="preserve" preserveAspectRatio="xMinYMid meet">
<defs>
</defs>
<path style="fill:#1F4D87;" d="M5,9.2v0.3h3.7L9,9.2C8.7,9.1,8.5,9.1,8.4,9C8.3,8.9,8.2,8.5,8.1,8L6.7,0H6.4L1.2,8.2
	C1,8.6,0.8,8.8,0.6,9C0.5,9.1,0.3,9.1,0,9.2v0.3h2.7V9.2C2.4,9.2,2.1,9.1,2,9.1S1.8,8.9,1.8,8.7c0-0.1,0-0.2,0.1-0.3S2,8.2,2.1,8.1
	l0.8-1.4h3C6,7.2,6,7.6,6,7.7c0.1,0.4,0.1,0.6,0.1,0.8C6.1,8.7,6,8.9,5.9,9S5.4,9.2,5,9.2z M3.2,6.1l2.1-3.4l0.5,3.4H3.2z M6.8,13.7
	c0.3-0.1,0.5-0.2,0.6-0.3c0.2-0.1,0.4-0.4,0.6-0.7l5.2-8.2h0.4l1.3,8c0.1,0.5,0.2,0.9,0.3,1s0.4,0.2,0.8,0.2V14h-4.2v-0.3
	c0.4,0,0.7-0.1,0.9-0.2s0.2-0.3,0.2-0.6c0-0.1,0-0.4-0.1-0.8c0-0.1-0.1-0.4-0.1-1h-3l-0.8,1.4c-0.1,0.1-0.1,0.2-0.1,0.3
	S8.6,13,8.6,13.2c0,0.2,0.1,0.3,0.2,0.4s0.4,0.1,0.7,0.1V14H6.8V13.7z M12.5,10.5L12,7.1L10,10.5H12.5z M16,16H5v-1h11V16z"/>
</svg>
